X: 1
T:The McAteer Hornpipe
M:C|
L:1/8
Q:80
C:Michael Grey
S:Hornpipe
K:HP
|: {g}B/2d/2|
{g}e{A}e/2d/2{g}B/2d/2{g}e/2f/2|
{gf}g{a}f/2g/2{a}e{g}d/2B/2|  !
{Gdc}d{g}d/2B/2{g}G/2A/2{g}B/2c/2|
{g}d/2e/2{g}d/2B/2{gGd}G{g}B/2d/2{g}e{A}e/2d/2{g}B/2d/2{g}e/2f/2|
{gf}g{a}f/2g/2{a}e{g}f/2g/2|  !
a/2d/2{g}f/2g/2{a}G/2g/2{a}f/2d/2|
{gef}e2{A}e:| |:
{g}f/2g/2|  !
{ag}a{g}a/2g/2{a}f{g}e/2f/2|
{gf}g{a}f/2g/2{a}e{g}d/2B/2|
{Gdc}d{g}e/2g/2{a}G/2g/2f/2d/2|  !
{g}e/2g/2{a}d/2B/2{gGd}G{g}f/2g/2|1 {ag}a{g}a/2g/2{a}f{g}e/2f/2|
{gf}g{a}f/2g/2{a}e{g}d/2B/2|
a/2d/2{g}f/2g/2{a}G/2g/2{a}f/2d/2|  !
{gef}e2{A}e:|
